X: 1
T: Le Cheile
M: 4/4
L: 1/8
R: reel
K: Gmaj
GB (3BBB G2 DE|GB (3BBB dBAB|GB (3BBB G2 ag|fgef dcBA|
GB (3BBB G2 DE|GB (3BBB dBAB|GB (3BBB G2 ag|fgef defg||
ad (3ddd adfd|ad (3ddd edBd|ad (3ddd abag|fgef defg|
ad (3ddd adfd|ad (3ddd edBd|g2 gf gbag|fgef d2 ef|
g2 gf gdBd|gagd BGBd|g2 gf gbag|fgef d2 ef|
g2 gf gdBd|gagd BGBd|g2 gfgbag|fgef dcBA|
